public/icons/product-style-design.svg

<svg width="48" height="48" viewBox="0 0 48 48" fill="none" xmlns="http://www.w3.org/2000/svg">
<g clip-path="url(#clip0_573_1567)">
<path d="M46.5938 38.572H44.6378V1.40625C44.6378 0.629625 44.0082 0 43.2316 0H4.76841C3.99178 0 3.36216 0.629625 3.36216 1.40625V38.572H1.40625C0.629625 38.572 0 39.2017 0 39.9783V40.0312C0 44.4252 3.57478 48 7.96875 48H40.0312C44.4252 48 48 44.4252 48 40.0312V39.9783C48 39.2017 47.3704 38.572 46.5938 38.572ZM6.17466 2.8125H41.8252V38.572H39.009V7.13109C39.009 6.35447 38.3794 5.72484 37.6028 5.72484H10.3972C9.62053 5.72484 8.99091 6.35447 8.99091 7.13109V38.5721H6.17466V2.8125ZM11.8034 38.572V24.9609H22.5938V38.572H11.8034ZM36.1966 8.53734V22.1484H25.4062V8.53734H36.1966ZM22.5938 22.1484H11.8034V18.4494L16.8983 13.3524C17.4474 12.8032 17.4473 11.9128 16.898 11.3637C16.3487 10.8147 15.4583 10.8148 14.9093 11.3641L11.8035 14.4712V8.53734H22.5938V22.1484ZM25.4062 24.9609H36.1966V38.572H25.4062V24.9609ZM40.0312 45.1875H7.96875C5.59378 45.1875 3.58866 43.5733 2.99269 41.3845H45.0073C44.4113 43.5733 42.4062 45.1875 40.0312 45.1875Z" fill="#AE9F91"/>
<path d="M16.5595 19.3835C16.8341 19.658 17.1939 19.7952 17.5538 19.7952C17.9138 19.7952 18.2738 19.6579 18.5483 19.3832L19.7508 18.1802C20.2999 17.6309 20.2997 16.7405 19.7504 16.1915C19.2011 15.6424 18.3107 15.6426 17.7617 16.1919L16.5592 17.3949C16.0101 17.9441 16.0103 18.8345 16.5595 19.3835Z" fill="#AE9F91"/>
</g>
<defs>
<clipPath id="clip0_573_1567">
<rect width="48" height="48" fill="white"/>
</clipPath>
</defs>
</svg>

<svg xmlns="http://www.w3.org/2000/svg" fill="none" viewBox="0 0 48 48"><g fill="#ae9f91" clip-path="url(#a)"><path d="M46.594 38.572h-1.956V1.406C44.638.63 44.008 0 43.232 0H4.768c-.776 0-1.406.63-1.406 1.406v37.166H1.406c-.776 0-1.406.63-1.406 1.406v.053C0 44.425 3.575 48 7.969 48H40.03c4.395 0 7.97-3.575 7.97-7.969v-.053c0-.776-.63-1.406-1.406-1.406M6.174 2.812h35.651v35.76H39.01V7.132c0-.778-.63-1.407-1.406-1.407H10.397c-.776 0-1.406.63-1.406 1.406v31.441H6.175zm5.63 35.76V24.961h10.79v13.611zM36.196 8.537v13.611h-10.79V8.538zM22.594 22.148h-10.79V18.45l5.094-5.097a1.406 1.406 0 1 0-1.989-1.988l-3.106 3.107V8.537h10.79zm2.812 2.813h10.79v13.611h-10.79zm14.625 20.227H7.97a5.166 5.166 0 0 1-4.976-3.803h42.014a5.166 5.166 0 0 1-4.976 3.803"/><path d="M16.56 19.384c.274.274.634.411.994.411s.72-.137.994-.412l1.203-1.203a1.406 1.406 0 1 0-1.99-1.988l-1.202 1.203a1.407 1.407 0 0 0 0 1.989"/></g><defs><clipPath id="a"><path fill="#fff" d="M0 0h48v48H0z"/></clipPath></defs></svg>
